assets/icons/informations/flag.svg

<svg viewBox="0 0 24 24" xmlns="http://www.w3.org/2000/svg">
<path d="M6 21C5.71667 21 5.479 20.904 5.287 20.712C5.09567 20.5207 5 20.2833 5 20V5C5 4.71667 5.09567 4.479 5.287 4.287C5.479 4.09567 5.71667 4 6 4H13.175C13.4083 4 13.6167 4.075 13.8 4.225C13.9833 4.375 14.1 4.56667 14.15 4.8L14.4 6H19C19.2833 6 19.5207 6.09567 19.712 6.287C19.904 6.479 20 6.71667 20 7V15C20 15.2833 19.904 15.5207 19.712 15.712C19.5207 15.904 19.2833 16 19 16H13.825C13.5917 16 13.3833 15.925 13.2 15.775C13.0167 15.625 12.9 15.4333 12.85 15.2L12.6 14H7V20C7 20.2833 6.90433 20.5207 6.713 20.712C6.521 20.904 6.28333 21 6 21Z" fill="inherit"/>
</svg>

<svg viewBox="0 0 24 24" xmlns="http://www.w3.org/2000/svg"><path d="M6 21a1 1 0 0 1-.7-.3A1 1 0 0 1 5 20V5c0-.3.1-.5.3-.7.2-.2.4-.3.7-.3h7.2c.2 0 .4 0 .6.2l.3.6.3 1.2H19c.3 0 .5.1.7.3.2.2.3.4.3.7v8c0 .3-.1.5-.3.7a1 1 0 0 1-.7.3h-5.2a1 1 0 0 1-.6-.2 1 1 0 0 1-.3-.6l-.3-1.2H7v6c0 .3-.1.5-.3.7a1 1 0 0 1-.7.3Z" fill="inherit"/></svg>
